packages/foundations/assets/icons/functional/images/maps/navigation_u_turn_28.svg

<svg width="28" height="28" viewBox="0 0 28 28" fill="none" xmlns="http://www.w3.org/2000/svg">
<g clip-path="url(#clip0_2213_5427)">
<path fill-rule="evenodd" clip-rule="evenodd" d="M11.8125 3.5C14.712 3.5 17.0625 5.85051 17.0625 8.75V15.7622L17.0599 15.8069L17.0625 21.5058L19.9292 18.6363C20.1033 18.4621 20.316 18.375 20.5674 18.375C21.0315 18.375 21.4375 18.7524 21.4375 19.2459C21.4375 19.4781 21.3505 19.7103 21.1765 19.8554L16.7294 24.3081C16.5853 24.436 16.3864 24.5 16.1875 24.5C15.9845 24.5 15.7524 24.4129 15.5784 24.2387L11.1985 19.8554C11.0535 19.7103 10.9375 19.4781 10.9375 19.2459C10.9375 18.7524 11.3435 18.375 11.8076 18.375C12.0397 18.375 12.2717 18.4621 12.4458 18.6363L15.3125 21.5058L15.3079 10.5003L15.3125 10.4125V8.75C15.3125 6.817 13.7455 5.25 11.8125 5.25C9.8795 5.25 8.3125 6.817 8.3125 8.75V14C8.3125 14.4832 7.92075 14.875 7.4375 14.875C6.95425 14.875 6.5625 14.4832 6.5625 14V8.75C6.5625 5.85051 8.91301 3.5 11.8125 3.5Z" fill="#1A1C1F"/>
</g>
<defs>
<clipPath id="clip0_2213_5427">
<rect width="28" height="28" fill="white"/>
</clipPath>
</defs>
</svg>

<svg xmlns="http://www.w3.org/2000/svg" width="28" height="28" fill="none"><g clip-path="url(#a)"><path fill="#1A1C1F" fill-rule="evenodd" d="M11.813 3.5c2.899 0 5.25 2.35 5.25 5.25v7.012l-.003.045.003 5.699 2.866-2.87a.87.87 0 0 1 .638-.261c.465 0 .87.377.87.87a.79.79 0 0 1-.26.61l-4.448 4.453a.82.82 0 0 1-.541.192.88.88 0 0 1-.61-.261l-4.38-4.384a.9.9 0 0 1-.26-.61c0-.493.406-.87.87-.87a.9.9 0 0 1 .638.261l2.867 2.87-.005-11.006.005-.088V8.75a3.5 3.5 0 1 0-7 0V14a.875.875 0 0 1-1.75 0V8.75c0-2.9 2.35-5.25 5.25-5.25" clip-rule="evenodd"/></g><defs><clipPath id="a"><path fill="#fff" d="M0 0h28v28H0z"/></clipPath></defs></svg>
